public/svg/color/med.svg

<svg xmlns="http://www.w3.org/2000/svg" width="32" height="32" viewBox="0 0 32 32"><g fill="none" fill-rule="evenodd"><circle cx="16" cy="16" r="16" fill="#00B0FF"/><path fill="#FFF" fill-rule="nonzero" d="M24,12.0610844 L24,20.976245 L21.4638027,22.4567911 L21.4638027,16.5061952 L16,19.7766554 L10.5361973,16.5030384 L10.5361973,22.4564754 L8,20.9759293 L8,12.0610844 L16,16.8660721 L24,12.0610844 Z M16.0308671,23.1778076 L18.3697693,21.7793386 L20.6800318,23.1778076 L16.0308671,26 L11.3817025,23.1778076 L13.691965,21.7793386 L16.0308671,23.1778076 Z M20.6491647,8.82219241 L18.3389021,10.2206614 L16,8.82219241 L13.6610979,10.2206614 L11.3508353,8.82219241 L16,6 L20.6491647,8.82219241 Z"/></g></svg>

<svg xmlns="http://www.w3.org/2000/svg" width="32" height="32" viewBox="0 0 32 32"><g fill="none" fill-rule="evenodd"><circle cx="16" cy="16" r="16" fill="#00B0FF"/><path fill="#FFF" fill-rule="nonzero" d="M24 12.061v8.915l-2.536 1.48v-5.95L16 19.776l-5.464-3.273v5.953L8 20.976V12.06l8 4.805 8-4.805zm-7.97 11.117l2.34-1.399 2.31 1.399L16.03 26l-4.648-2.822 2.31-1.399 2.339 1.399zm4.62-14.356l-2.311 1.399L16 8.822l-2.339 1.399-2.31-1.399L16 6l4.65 2.822z"/></g></svg>
